X:26
T:Providence continued
S:John Moore's Book 3
Z:Transcribed by John Adams 05/2021  
%%VWML:Moore1-4495-p44-0
F:https://www.vwml.org/record/Moore3/4495/p44
M:none
L:1/8
K:Dmaj
V:1
(AF) F A|G3A|(BG) (GB)|!fermata!A3z|z4|!fermata!z2z"*"B|A2 (AB)|A2A2|A4|]
V:2 dyn=up
d2d d|d3^d|e2e2|!fermata!e3!p!d|d d d c|!fermata!d2z!f!g|(af) (de)|f2 ag|d4|]
V:3 dyn=up
(FA) d ^c|B3 A|(GB) (ed)|!fermata! d2 c !p!d| A B A G|!fermata!F2z!f!d|d2d2|ad fe|d4|]
V:4 clef=bass
D,2D, (E,/F,/)|G,3F,|E,3 (F,/G,/)|!fermata!A,3 B,|F, G, F, E,|!fermata!D,2zG,|(F,D,) (F,G,)|A,2A,,2|D,4|]
W:* Tail missing from the single note in voice 1 bar 6 - transcribed to match other voices.
W:Fermata included voice 1 bar 6 to enable abc playback.

